X:350
T: Brid Harper's
S: "Traditional Irish Music" (K.Tweed)
Z: B.Black
L: 1/8
M: 4/4
R: reel
K: C
Gc c2 AcGc|ecgc egce|fedc BGAB|cdea g2 EF|
Gc c2 AcGc|ecgc (3efg ce|fedc BGAB|dccB cAGE :|
C2 C2 A,CG,A,|CEGc AGEG|cAGE AFDC|B,CDE DB,G,B,|
C2 C2 A,CG,A,|CEGc AGEG|cAGE AFDC|1 B,CDB, C3 B, :|2\
B,CDB, CDEF ||
